X: 2
T:Arpeggios - David Grisman
C:Minium Daily Requirement
N:From The Mandozine Website  Transcribed By Mike Stangeland
L:1/8
Q:1/4=120
M:6/8
K:C
"G"G,B,D GBd | gdB GDB, | G,6 | "Em"EGB egb | e'bg eBG | E6 | "D"D^FA d^fa | d'a^f dA^F | 
D6 | "Bm"B,D^F Bd^f | b^fd B^FD | B,6 | "A"A,^CE A^ce | ae^c AE^C | A,6 | "F#m"^FA^c ^fa^c' | 
^f'^c'a ^f^cA | ^F6 | "E"E^GB e^gb | e'b^g eB^G | E6 | "C#m"^CE^G ^ce^g | ^c'^ge ^c^GE | 
^C6 | "C"CEG ceg | c'ge cGE | C6 | "Am"A,CE Ace | aec AEC | A,6 | "F"FAc fac' | 
f'c'a fcA | F6 | "Dm"DFA cfa | d'af dAF | D6 | "Bb"_B,DF _Bdf | _bfd _BFD | _B,6 | 
"Gm"G,_B,D G_Bd | gd_B GD_B, | G,6 | "Eb"^DG_B ^dg_b | ^d'_bg ^d_BG | ^D6 | "Cm"C^DG c^dg | 
c'g^d cG^D | C6 | "Ab"^G,C^D ^Gc^d | ^g^dc ^G^DC | ^G,6 | "Fm"F^Gc f^gc' | f'c'^g fc^G | 
F6 | "B"B,^D^F B^d^f | b^f^d B^F^D | B,6 | "G#m"^G,B,^D ^GB^d | ^g^dB ^G^DB, | 
^G,6 | "F#"^F_B^c ^f_b^c' | ^f'^c'_b ^f^c_B | ^F6 | "D#m"^D^F_B ^d^f_b | ^d'_b^f ^d_B^F | 
^D6 |

